X: 7
T: Jenny Picking Cockles
R: reel
M: 4/4
L: 1/8
K: Dmaj
"Intro"A4=cAA2|GAA2=cAA2|GAA2=cAA2|DAAD AADA|
A4=cAA2|GAA2=cAA2|e8-|e7d|
|:"Part A"d3=c AGG2|FGAB =cAA2|d3=c AGG2|AGcG EDDE|
A2d=c AGG2|FGAB =c3d|e2d=c AGEG|[1AG=cG EADE:|[2 AA=cG GAde|
|: "Part B"f3d efed|cAAA B/2c/2deg|fffd edcd|a3g edde|
f3d efed|cAAB=c3d|e2dB AGEG|[1AA=cA GAde:|[2 AA=cA GAD2|]


Tune 1357	Setting 1357

